shared/images/iconfont/kb-iconfont-boom-16.svg

<?xml version="1.0" encoding="UTF-8"?>
<svg width="16px" height="16px" viewBox="0 0 16 16" version="1.1" xmlns="http://www.w3.org/2000/svg" xmlns:xlink="http://www.w3.org/1999/xlink">
    <!-- Generator: sketchtool 49.3 (51167) - http://www.bohemiancoding.com/sketch -->
    <title>3EEF2CDD-8D9C-411F-A1CC-2B9E877D39FF</title>
    <desc>Created with sketchtool.</desc>
    <defs></defs>
    <g id="Colors,-icons" stroke="none" stroke-width="1" fill="none" fill-rule="evenodd">
        <g id="Icons-2" transform="translate(-371.000000, -511.000000)">
            <g id="kb-iconfont-boom-16" transform="translate(371.000000, 511.000000)">
                <rect id="icon-area" x="0" y="0" width="16" height="16"></rect>
                <path d="M9.16303087,7.96827699 L9.17540585,7.59750207 C9.18295569,7.37129618 9.34787773,7.18127921 9.57077108,7.1419771 C9.76467253,7.10778704 9.94957723,7.2372587 9.98376728,7.43116015 C9.98552887,7.44115059 9.98686322,7.45121167 9.98776671,7.46131591 L9.99519449,7.54438536 L10.0149958,7.54089387 C10.0824833,7.33503225 10.1721653,7.18268209 10.2840444,7.08383882 C10.3959235,6.98499554 10.5467424,6.91884472 10.7365056,6.88538435 C10.929569,6.85134206 11.0862727,6.86922324 11.2066213,6.93902843 C11.3269699,7.00883362 11.4231423,7.12245777 11.4951412,7.27990429 L11.5149425,7.27641279 C11.5913582,7.08258825 11.6915227,6.93179254 11.8154388,6.82402113 C11.939355,6.71624972 12.0928921,6.6462168 12.2760549,6.61392027 C12.508721,6.57289495 12.6975735,6.61147902 12.842618,6.72967365 C12.9876625,6.84786828 13.0841874,7.04309712 13.1321958,7.31536604 C13.1604189,7.47542717 13.1720908,7.64776189 13.1672119,7.83237539 L13.1385813,8.92051448 C13.1311375,9.20342247 12.9255526,9.44198526 12.6468462,9.49112872 C12.4309384,9.52919909 12.2250484,9.38503338 12.186978,9.16912559 C12.1823405,9.14282479 12.1803689,9.11612312 12.1810933,9.08942642 L12.2118064,7.95745321 C12.2186142,7.86097335 12.2108163,7.74920569 12.1884124,7.62214686 C12.176774,7.55614227 12.152224,7.5085786 12.1147617,7.47945443 C12.0772994,7.45033026 12.032167,7.44042368 11.9793634,7.44973439 C11.8572549,7.47126541 11.7697183,7.55135341 11.716751,7.69000079 C11.6637838,7.82864817 11.6336913,8.02706242 11.6264726,8.28524949 L11.6018977,9.19155255 C11.5942253,9.47450678 11.38853,9.71300382 11.109772,9.76215637 C10.8945335,9.80010873 10.6892817,9.65638987 10.6513293,9.4411513 C10.6466363,9.41453601 10.6446821,9.38750998 10.6454972,9.36049641 L10.6796826,8.22760798 C10.6782479,8.07473326 10.6730208,7.97272066 10.664001,7.9215671 C10.6366508,7.76645632 10.5635727,7.69937649 10.4447644,7.72032559 C10.3325566,7.74011085 10.2497521,7.81808842 10.1963484,7.95426063 C10.1429447,8.09043284 10.1110815,8.28362978 10.100758,8.53385723 L10.0668824,9.46316073 C10.0565491,9.74663513 9.84957596,9.98436294 9.57022276,10.0336204 C9.35568615,10.071449 9.15110373,9.92819888 9.11327514,9.71366228 C9.11210015,9.70699858 9.11109742,9.70030912 9.11026741,9.69360059 C9.09507485,9.73075936 9.07897993,9.7674585 9.06198264,9.80369801 C8.90189718,10.1450123 8.67687476,10.4103072 8.38690864,10.5995906 C8.09694252,10.7888741 7.75865379,10.8835144 7.3720323,10.8835144 C6.9511787,10.8835144 6.62648193,10.7697446 6.39793224,10.5422018 C6.16938256,10.3146589 6.05510943,9.98945874 6.05510943,9.56659148 C6.05510943,9.44759501 6.06144777,9.33182801 6.0741245,9.21929022 C5.71717042,9.44549811 5.30246691,9.5586004 4.83000212,9.5586004 C4.30410269,9.5586004 3.89836102,9.41643355 3.61276492,9.13209558 C3.38175915,8.90210745 3.24417984,8.59227987 3.20002473,8.20260638 C3.1558371,8.3816458 3.09224915,8.54033426 3.00926048,8.67867329 C2.85543915,8.93508774 2.64734737,9.10591674 2.38497889,9.19116543 C2.22602572,9.24281244 2.07722727,9.257284 1.93857907,9.23458055 C1.79993087,9.2118771 1.64508224,9.14256591 1.47402853,9.02664489 L1.45104747,9.03411189 C1.43651836,9.27829169 1.27391742,9.48865308 1.04127789,9.56424224 L0.986011132,9.5821995 C0.788589215,9.64634577 0.576546304,9.53830451 0.512400034,9.34088259 C0.504325517,9.31603178 0.498864424,9.29040671 0.496105351,9.2644231 L0.0995405906,5.52976757 C0.0635659809,5.19097606 0.269659829,4.87324772 0.593681116,4.76796682 C0.842382586,4.68715881 1.1095028,4.82326336 1.1903108,5.07196483 C1.20051455,5.10336873 1.20740527,5.13575385 1.21087048,5.16859154 L1.22438626,5.29667239 C1.26050683,5.65546022 1.2679764,5.97167918 1.24679518,6.24533874 L1.26977625,6.23787174 C1.32498803,6.09501278 1.37384055,5.99286175 1.41633525,5.93141556 C1.45882996,5.86996938 1.51161676,5.81576605 1.57469723,5.76880396 C1.63777771,5.72184186 1.71623668,5.68311619 1.8100765,5.65262578 C2.10691675,5.55617654 2.36950013,5.58889465 2.59783452,5.75078111 C2.82616892,5.91266756 3.00535889,6.19373436 3.1354098,6.59398992 C3.19506333,6.7775846 3.23567655,6.96920665 3.25724966,7.16885779 C3.30724974,6.92633024 3.3829784,6.69690973 3.48443604,6.4805944 C3.68447912,6.05408745 3.96566753,5.72257448 4.32800972,5.48604556 C4.69035191,5.24951663 5.11307812,5.13125394 5.59620103,5.13125394 C6.12210046,5.13125394 6.52784213,5.27342079 6.81343823,5.55775875 C7.09903433,5.84209672 7.24183024,6.24846745 7.24183024,6.77688314 C7.24183024,7.03409067 7.21813271,7.27922399 7.17073732,7.51228477 C7.41298186,7.39776685 7.68446342,7.34050856 7.98518676,7.34050856 C8.40604036,7.34050856 8.73073713,7.45427828 8.95928682,7.68182114 C9.0422648,7.76443358 9.11017943,7.85991871 9.16303087,7.96827699 Z M1.64073484,6.69535473 C1.54497992,6.72646739 1.47174807,6.81060345 1.42103707,6.94776545 C1.37032607,7.08492745 1.34977511,7.25463304 1.35938356,7.45688729 C1.36899201,7.65914154 1.40490836,7.85602063 1.46713368,8.04753047 C1.50758014,8.17201186 1.55812998,8.26568417 1.61878472,8.3285502 C1.67943946,8.39141622 1.74806777,8.41040389 1.82467171,8.38551376 C1.91851153,8.35502335 1.99207868,8.26866109 2.04537537,8.12642439 C2.09867205,7.98418769 2.12290968,7.81116699 2.11808897,7.6073571 C2.11326827,7.40354722 2.08130137,7.21067799 2.02218731,7.02874365 C1.93258286,6.75296948 1.8054333,6.64184095 1.64073484,6.69535473 Z M5.42635398,6.2295982 C5.22002024,6.2295982 5.04325526,6.40510506 4.89605375,6.75612406 C4.74885223,7.10714305 4.67525258,7.50911039 4.67525258,7.96203812 C4.67525258,8.29670139 4.78093413,8.46403051 4.99230041,8.46403051 C5.19611789,8.46403051 5.37351192,8.28915271 5.52448784,7.93939185 C5.67546375,7.58963098 5.75095057,7.18703459 5.75095057,6.73159059 C5.75095057,6.56551709 5.72201395,6.44033478 5.66413986,6.35603989 C5.60626576,6.27174501 5.52700459,6.2295982 5.42635398,6.2295982 Z M7.84926582,8.21946396 C7.68414622,8.21946396 7.54268918,8.35991419 7.42489045,8.64081887 C7.30709171,8.92172355 7.24819323,9.24339988 7.24819323,9.60585753 C7.24819323,9.87367346 7.33276541,10.0075794 7.50191231,10.0075794 C7.66501825,10.0075794 7.8069787,9.86763259 7.92779792,9.58773474 C8.04861713,9.30783689 8.10902584,8.98565715 8.10902584,8.62118584 C8.10902584,8.48828471 8.08586917,8.38810694 8.03955513,8.32064955 C7.9932411,8.25319215 7.92981196,8.21946396 7.84926582,8.21946396 Z M14.8244717,8.7403519 C14.502076,8.76855786 14.2178573,8.53007 14.1896513,8.20767434 C14.1868675,8.17585515 14.1866899,8.14386162 14.1891204,8.1120135 L14.3755181,5.66954101 C14.4148824,5.15372885 14.8218444,4.74222482 15.3371879,4.6971381 C15.7156055,4.66403085 16.0492124,4.94396024 16.0823197,5.32237791 C16.0875687,5.38237481 16.0849149,5.44280128 16.0744263,5.50210702 L15.6326245,8.00019744 C15.5616835,8.40132064 15.2302697,8.70484917 14.8244717,8.7403519 Z M13.8053501,10.4736581 C13.7791728,10.1744499 13.8492576,9.92881372 14.0156068,9.73674226 C14.181956,9.5446708 14.4245183,9.43469179 14.7433009,9.40680192 C14.9865824,9.38551755 15.1781893,9.42581255 15.3181273,9.52768815 C15.4580653,9.62956374 15.5370851,9.78396376 15.555189,9.99089283 C15.5821003,10.2984901 15.5141126,10.5439428 15.351224,10.7272583 C15.1883353,10.9105737 14.9530959,11.0156855 14.6454986,11.0425968 C14.3994208,11.0641258 14.202466,11.0271164 14.0546283,10.9315674 C13.9067906,10.8360185 13.8236987,10.6833836 13.8053501,10.4736581 Z" id="Combined-Shape" fill="#000000"></path>
            </g>
        </g>
    </g>
</svg>

<svg xmlns="http://www.w3.org/2000/svg" width="16" height="16" viewBox="0 0 16 16">
    <g fill="none" fill-rule="evenodd">
        <path d="M0 0h16v16H0z"/>
        <path fill="#000" d="M9.163 7.968l.012-.37a.479.479 0 0 1 .396-.456.357.357 0 0 1 .417.32l.007.082.02-.003c.067-.206.157-.358.269-.457a.906.906 0 0 1 .453-.199c.193-.034.35-.016.47.054s.216.183.288.34l.02-.003a1.14 1.14 0 0 1 .3-.452.933.933 0 0 1 .461-.21c.233-.041.422-.003.567.116.145.118.241.313.29.585.027.16.04.333.034.517l-.028 1.089a.595.595 0 0 1-.492.57.397.397 0 0 1-.466-.402l.03-1.132a1.392 1.392 0 0 0-.023-.335c-.011-.066-.036-.113-.073-.143a.164.164 0 0 0-.136-.03c-.122.022-.21.102-.262.241-.053.139-.083.337-.09.595l-.025.907a.596.596 0 0 1-.492.57.396.396 0 0 1-.465-.402l.035-1.132a2.302 2.302 0 0 0-.016-.306c-.027-.156-.1-.223-.22-.202-.111.02-.194.098-.248.234-.053.136-.085.33-.095.58l-.034.93a.602.602 0 0 1-.497.57.394.394 0 0 1-.46-.34 2.383 2.383 0 0 1-.048.11c-.16.341-.385.606-.675.796-.29.189-.628.284-1.015.284-.42 0-.746-.114-.974-.342-.229-.227-.343-.553-.343-.975 0-.12.006-.235.02-.348-.358.226-.773.34-1.245.34-.526 0-.932-.143-1.217-.427-.231-.23-.369-.54-.413-.93a1.722 1.722 0 0 1-.19.477 1.118 1.118 0 0 1-.625.512.942.942 0 0 1-.446.044 1.204 1.204 0 0 1-.465-.208l-.023.007a.595.595 0 0 1-.41.53l-.055.018a.376.376 0 0 1-.49-.318L.1 5.53a.721.721 0 0 1 .494-.762.473.473 0 0 1 .617.4l.013.129c.037.358.044.675.023.948l.023-.007c.055-.143.104-.245.146-.307a.696.696 0 0 1 .159-.162.812.812 0 0 1 .235-.116c.297-.097.56-.064.788.098.228.162.407.443.537.843.06.184.1.375.122.575.05-.243.126-.472.227-.688.2-.427.482-.758.844-.995.362-.236.785-.355 1.268-.355.526 0 .932.142 1.217.427.286.284.429.69.429 1.219 0 .257-.024.502-.071.735.242-.114.513-.171.814-.171.421 0 .746.113.974.34.083.083.151.179.204.287zM1.641 6.695c-.096.031-.17.116-.22.253-.05.137-.071.307-.062.509.01.202.046.399.108.59.04.125.091.219.152.282.06.062.13.081.206.057.094-.031.167-.117.22-.26a1.39 1.39 0 0 0 .073-.519 2.017 2.017 0 0 0-.096-.578c-.09-.276-.217-.387-.381-.334zm3.785-.465c-.206 0-.383.175-.53.526-.147.351-.22.753-.22 1.206 0 .335.105.502.316.502.204 0 .382-.175.532-.525.151-.35.227-.752.227-1.207 0-.166-.029-.292-.087-.376a.274.274 0 0 0-.238-.126zM7.85 8.22c-.165 0-.306.14-.424.42-.118.282-.177.603-.177.966 0 .268.085.402.254.402.163 0 .305-.14.426-.42.12-.28.181-.602.181-.967a.533.533 0 0 0-.07-.3.219.219 0 0 0-.19-.102zm6.975.52a.586.586 0 0 1-.635-.628l.187-2.442c.039-.516.446-.928.961-.973a.688.688 0 0 1 .737.805L15.633 8a.9.9 0 0 1-.809.74zm-1.019 1.734c-.026-.3.044-.545.21-.737.167-.192.41-.302.728-.33.244-.021.435.019.575.12.14.103.22.257.237.464.027.307-.04.553-.204.736-.163.184-.398.289-.706.316-.246.021-.443-.016-.59-.111-.148-.096-.231-.249-.25-.458z"/>
    </g>
</svg>
